public/logos/betfair.svg

<svg width="1163" height="200" viewBox="0 0 1163 200" fill="none" xmlns="http://www.w3.org/2000/svg">
<path d="M315.496 112.399C315.496 79.6992 336.458 79.113 364.707 79.113H367.928C395.485 79.113 410.58 83.7451 410.58 115.384V137.417C410.58 163.926 403.732 175.206 366.95 175.206H359.923C325.024 175.206 315.496 165.626 315.496 139.24V112.399ZM315.496 182.687H316.063C324.725 194.104 340.681 200 360.287 200H370.427C411.439 200 441.446 189.573 441.427 142.368V113.545C441.427 69.86 422.113 54.3157 371.708 54.3157H356.044C334.03 54.3157 321.777 61.7721 316.031 69.8321H315.496V0.0104276H284.652V195.528H315.496V182.687Z" fill="white"/>
<path d="M815.338 57.786H773.925V45.1777C773.925 33.142 781.826 23.4548 798.669 23.4548L829.426 23.4867V-4.81682e-05L788.527 0.0103967C763.807 0.0103967 743.057 12.8577 743.057 45.3056V57.786H726.451V82.5257H743.057V199.942H773.925V82.5257H815.338V57.786Z" fill="white"/>
<path d="M637.062 154.608C637.062 187.068 657.823 199.942 682.557 199.942H720.858V175.196L690.079 175.206C673.258 175.206 667.919 166.799 667.919 154.752V82.5257H709.363V57.786H667.919V-4.81682e-05H637.082V57.786H620.473V82.5257H637.082L637.062 154.608Z" fill="white"/>
<path d="M992.349 31.2812H1023.2V-8.30441e-05L992.349 0.0103618V31.2812Z" fill="white"/>
<path d="M992.326 199.973H1023.2V54.3155H992.349L992.326 199.973Z" fill="white"/>
<path d="M487.701 109.872C487.701 81.8954 500.751 79.1033 532.581 79.1033L538.815 79.1127C574.621 79.1127 579.24 88.1107 579.24 106.508L579.271 114.318L487.701 114.354V109.872ZM521.336 199.973H549.08C586.444 199.973 603.519 188.127 607.886 167.417L580.441 159.117C575.888 171.879 564.898 175.206 540.715 175.206H533.593C494.101 175.206 487.682 170.221 487.643 139.112L487.701 139.083H610.108V112.137C610.108 63.383 584.747 54.3154 544.221 54.3154H529.132C497.053 54.3154 458.161 59.9222 458.161 109.536V143.929C458.161 192.125 491.864 200 521.336 199.973Z" fill="white"/>
<path d="M934.117 156.457C934.117 170.136 924.728 175.206 888.2 175.206H879.95C848.908 175.206 844.968 169.229 844.968 157.422L844.978 149.741C844.968 136.057 852.707 130.892 878.411 130.892H892.146C915.568 130.892 934.117 135.481 934.117 150.802V156.457ZM895.781 54.3155H884.249C842.409 54.3155 824.275 67.1731 823.1 86.4277L852.506 96.1614C853.857 83.0053 868.98 79.1128 891.91 79.1128C926.009 79.1128 934.07 81.0863 934.07 105.682V119.046H933.461C925.753 108.785 915.23 106.134 888.515 106.134H876.459C837.067 106.134 814.131 115.927 814.131 147.044V155.94C814.17 181.631 823.965 199.973 865.085 199.973H895.012C924.777 199.973 927.76 195.097 933.637 186.588H934.117V199.942H964.944V106.315C964.944 65.53 937.824 54.3155 895.781 54.3155Z" fill="white"/>
<path d="M1117.28 54.3155C1103.58 54.3155 1089.59 59.5009 1080.94 73.6659H1079.83V54.3155L1050.61 54.3354V199.973H1081.46V112.339C1081.46 94.658 1091.64 79.1034 1115.6 79.1034C1132.72 79.1034 1140.98 83.7449 1142.81 88.6131L1162.24 75.525C1157.45 62.274 1144.58 54.3155 1117.28 54.3155Z" fill="white"/>
<path d="M227.835 0.502324H147.974V40.5147H105.293L187.907 136.878L270.548 40.5147H227.835V0.502324Z" fill="white"/>
<path d="M0 159.032H42.699V199.083H122.556V159.032H165.257L82.6513 62.6993L0 159.032Z" fill="white"/>
</svg>

<svg xmlns="http://www.w3.org/2000/svg" width="1163" height="200" fill="none"><path fill="#fff" d="M315.496 112.399c0-32.7 20.962-33.286 49.211-33.286h3.221c27.557 0 42.652 4.632 42.652 36.271v22.033c0 26.509-6.848 37.789-43.63 37.789h-7.027c-34.899 0-44.427-9.58-44.427-35.966zm0 70.288h.567C324.725 194.104 340.681 200 360.287 200h10.14c41.012 0 71.019-10.427 71-57.632v-28.823c0-43.685-19.314-59.23-69.719-59.23h-15.664c-22.014 0-34.267 7.457-40.013 15.517h-.535V.01h-30.844v195.518h30.844zM815.338 57.786h-41.413V45.178c0-12.036 7.901-21.723 24.744-21.723l30.757.032V0l-40.899.01c-24.72 0-45.47 12.848-45.47 45.296v12.48h-16.606v24.74h16.606v117.416h30.868V82.526h41.413zM637.062 154.608c0 32.46 20.761 45.334 45.495 45.334h38.301v-24.746l-30.779.01c-16.821 0-22.16-8.407-22.16-20.454V82.526h41.444v-24.74h-41.444V0h-30.837v57.786h-16.609v24.74h16.609zM992.349 31.281h30.851V0l-30.851.01zM992.326 199.973h30.874V54.315h-30.851zM487.701 109.872c0-27.977 13.05-30.769 44.88-30.769l6.234.01c35.806 0 40.425 8.998 40.425 27.395l.031 7.81-91.57.036zm33.635 90.101h27.744c37.364 0 54.439-11.846 58.806-32.556l-27.445-8.3c-4.553 12.762-15.543 16.089-39.726 16.089h-7.122c-39.492 0-45.911-4.985-45.95-36.094l.058-.029h122.407v-26.946c0-48.754-25.361-57.822-65.887-57.822h-15.089c-32.079 0-70.971 5.607-70.971 55.221v34.393c0 48.196 33.703 56.071 63.175 56.044M934.117 156.457c0 13.679-9.389 18.749-45.917 18.749h-8.25c-31.042 0-34.982-5.977-34.982-17.784l.01-7.681c-.01-13.684 7.729-18.849 33.433-18.849h13.735c23.422 0 41.971 4.589 41.971 19.91zM895.781 54.316h-11.532c-41.84 0-59.974 12.857-61.149 32.112l29.406 9.733c1.351-13.156 16.474-17.048 39.404-17.048 34.099 0 42.16 1.973 42.16 26.569v13.364h-.609c-7.708-10.261-18.231-12.912-44.946-12.912h-12.056c-39.392 0-62.328 9.793-62.328 40.91v8.896c.039 25.691 9.834 44.033 50.954 44.033h29.927c29.765 0 32.748-4.876 38.625-13.385h.48v13.354h30.827v-93.627c0-40.785-27.12-52-69.163-52M1117.28 54.316c-13.7 0-27.69 5.185-36.34 19.35h-1.11v-19.35l-29.22.02v145.637h30.85v-87.634c0-17.681 10.18-33.236 34.14-33.236 17.12 0 25.38 4.642 27.21 9.51l19.43-13.088c-4.79-13.251-17.66-21.21-44.96-21.21M227.835.502h-79.861v40.013h-42.681l82.614 96.363 82.641-96.363h-42.713zM0 159.032h42.699v40.051h79.857v-40.051h42.701L82.651 62.699z"/></svg>
